Flat-Remix-Dark/apps/scalable/session-properties.svg

<svg xmlns="http://www.w3.org/2000/svg" xmlns:xlink="http://www.w3.org/1999/xlink" width="384pt" height="384pt" version="1.1" viewBox="0 0 384 384"> <defs> <filter id="alpha" width="100%" height="100%" x="0%" y="0%" filterUnits="objectBoundingBox"> <feColorMatrix in="SourceGraphic" type="matrix" values="0 0 0 0 1 0 0 0 0 1 0 0 0 0 1 0 0 0 1 0"/> </filter> <mask id="mask0"> <g filter="url(#alpha)"> <rect width="384" height="384" x="0" y="0" style="fill:rgb(0%,0%,0%);fill-opacity:0.301961"/> </g> </mask> <clipPath id="clip1"> <rect width="384" height="384" x="0" y="0"/> </clipPath> <g id="surface5" clip-path="url(#clip1)"> <path style="fill:rgb(0%,0%,0%)" d="M 267.757812 78.691406 C 265.359375 78.644531 262.667969 78.980469 259.652344 79.679688 C 253.65625 81.070312 242.519531 85.546875 240.613281 87.210938 C 240.460938 87.160156 240.328125 87.128906 240.21875 87.128906 C 239.191406 87.128906 232.902344 90.867188 226.246094 95.4375 C 206.203125 109.199219 184.980469 133.300781 169.925781 159.40625 C 164.132812 169.453125 153.222656 195.335938 144.652344 218.550781 C 141.007812 216.84375 136.636719 215.8125 132.632812 215.804688 C 131.753906 215.800781 130.898438 215.847656 130.066406 215.945312 C 123.847656 216.683594 115.582031 220.691406 112.339844 224.542969 C 108.625 228.957031 102.570312 239.792969 100.140625 246.371094 C 95.246094 259.625 93.339844 280.242188 96.699219 283.597656 C 99.484375 286.382812 103.480469 284.714844 104.4375 280.363281 C 105.34375 276.234375 110.832031 270.316406 116.84375 266.984375 C 121.601562 264.351562 122.941406 264.082031 131.132812 264.082031 L 131.332031 264.082031 C 127.289062 268.21875 123.453125 273.132812 120.109375 278.449219 C 117.628906 282.425781 115.464844 286.554688 113.707031 290.671875 L 110.898438 298.3125 C 107.140625 310.710938 108.234375 320.414062 113.78125 323.910156 C 122.570312 329.417969 139.652344 317.996094 151.9375 298.398438 C 155.828125 292.179688 158.910156 285.613281 160.886719 279.359375 C 161.695312 279.660156 162.261719 279.796875 162.4375 279.691406 C 162.464844 279.675781 162.496094 279.65625 162.523438 279.636719 C 162.421875 279.789062 162.34375 279.914062 162.328125 279.992188 C 162.148438 280.730469 162.921875 283.226562 164.039062 285.535156 C 168.09375 293.90625 165.527344 307.324219 158.722656 313.347656 C 154.753906 316.863281 154.4375 318.769531 157.476562 320.894531 C 160.039062 322.691406 161.277344 322.398438 170.882812 317.726562 C 183.5 311.589844 195.195312 302.078125 203.914062 290.855469 C 209.585938 283.554688 211.132812 279.660156 211.105469 272.746094 C 211.074219 263.742188 206.054688 255.375 198.273438 251.351562 C 197.867188 251.140625 197.523438 250.976562 197.199219 250.835938 C 210.238281 238.636719 223.644531 225.265625 233.554688 215.304688 C 244.226562 204.582031 255.984375 188.007812 261.300781 179.449219 C 272.691406 161.117188 283.601562 134.960938 283.992188 120.164062 L 284.265625 109.636719 L 284.140625 109.617188 C 284.414062 108.058594 284.320312 105.8125 284.105469 102.644531 C 282.992188 86.308594 278.152344 78.898438 267.757812 78.691406 Z M 267.757812 78.691406"/> </g> <mask id="mask1"> <g filter="url(#alpha)"> <rect width="384" height="384" x="0" y="0" style="fill:rgb(0%,0%,0%);fill-opacity:0.301961"/> </g> </mask> <clipPath id="clip2"> <rect width="384" height="384" x="0" y="0"/> </clipPath> <g id="surface8" clip-path="url(#clip2)"> <path style="fill:rgb(0%,0%,0%)" d="M 360.59375 187.609375 C 358.898438 279.476562 283.9375 353.082031 192 353.152344 C 100.550781 353.097656 25.785156 280.253906 23.40625 188.890625 C 23.34375 189.925781 23.292969 190.964844 23.25 192 C 23.25 285.144531 98.800781 360.652344 192 360.652344 C 285.199219 360.652344 360.75 285.144531 360.75 192 C 360.71875 190.535156 360.664062 189.074219 360.59375 187.609375 Z M 360.59375 187.609375"/> </g> <mask id="mask2"> <g filter="url(#alpha)"> <rect width="384" height="384" x="0" y="0" style="fill:rgb(0%,0%,0%);fill-opacity:0.301961"/> </g> </mask> <clipPath id="clip3"> <rect width="384" height="384" x="0" y="0"/> </clipPath> <g id="surface11" clip-path="url(#clip3)"> <path style="fill:rgb(100.000%,100.000%,100.000%)" d="M 192 23.347656 C 98.800781 23.347656 23.25 98.855469 23.25 192 C 23.28125 193.464844 23.335938 194.925781 23.40625 196.390625 C 25.101562 104.523438 100.0625 30.917969 192 30.847656 C 283.449219 30.902344 358.214844 103.746094 360.59375 195.109375 C 360.65625 194.074219 360.707031 193.035156 360.75 192 C 360.75 98.855469 285.199219 23.347656 192 23.347656 Z M 192 23.347656"/> </g> </defs> <g> <path style="fill:rgb(21.176%,48.235%,94.117%)" d="M 360.75 192 C 360.75 98.855469 285.199219 23.347656 192 23.347656 C 98.800781 23.347656 23.25 98.855469 23.25 192 C 23.25 285.144531 98.800781 360.652344 192 360.652344 C 285.199219 360.652344 360.75 285.144531 360.75 192 Z M 360.75 192"/> <use mask="url(#mask0)" xlink:href="#surface5"/> <path style="fill:rgb(83.137%,9.803%,9.803%)" d="M 267.753906 71.191406 C 265.355469 71.144531 262.664062 71.480469 259.648438 72.179688 C 253.074219 73.703125 240.296875 78.945312 240.296875 80.117188 C 240.296875 81.632812 246.507812 89.546875 250.121094 92.640625 C 255.84375 97.539062 264.84375 102.070312 271.894531 103.601562 C 284.285156 106.292969 284.835938 105.910156 284.101562 95.144531 C 282.988281 78.808594 278.148438 71.398438 267.753906 71.191406 Z M 132.628906 208.304688 C 131.753906 208.300781 130.894531 208.347656 130.066406 208.445312 C 123.84375 209.183594 115.578125 213.191406 112.339844 217.042969 C 108.625 221.457031 102.566406 232.292969 100.136719 238.871094 C 95.242188 252.125 93.335938 272.742188 96.695312 276.097656 C 99.480469 278.882812 103.476562 277.214844 104.433594 272.863281 C 105.339844 268.734375 110.828125 262.816406 116.839844 259.488281 C 121.597656 256.851562 122.9375 256.582031 131.128906 256.582031 L 140.167969 256.582031 L 144.957031 242.867188 C 147.59375 235.328125 150.507812 226.523438 151.4375 223.308594 L 153.121094 217.460938 L 149.667969 214.292969 C 145.753906 210.707031 138.761719 208.320312 132.628906 208.304688 Z M 195.570312 242.957031 C 194.570312 243.023438 193.492188 243.722656 191.273438 245.273438 C 185.773438 249.121094 162.730469 270.78125 162.324219 272.488281 C 162.144531 273.226562 162.917969 275.722656 164.035156 278.035156 C 168.089844 286.40625 165.523438 299.824219 158.722656 305.847656 C 154.753906 309.363281 154.4375 311.269531 157.472656 313.394531 C 160.035156 315.191406 161.273438 314.898438 170.878906 310.226562 C 183.5 304.089844 195.195312 294.578125 203.910156 283.355469 C 209.582031 276.054688 211.128906 272.160156 211.105469 265.246094 C 211.070312 256.242188 206.050781 247.875 198.269531 243.851562 C 197.085938 243.238281 196.351562 242.90625 195.570312 242.957031 Z M 195.570312 242.957031"/> <path style="fill:rgb(83.137%,9.803%,9.803%)" d="M 225.601562 170.699219 C 208.175781 167.722656 195.457031 153.933594 195.457031 137.476562 C 195.453125 124.128906 204.617188 111.378906 217.871094 106.292969 C 227.253906 102.691406 238.429688 103.035156 247.328125 107.199219 C 260.496094 113.359375 267.789062 124.1875 267.789062 137.574219 C 267.789062 153.226562 255.425781 167.804688 240.003906 170.34375 C 231.90625 171.675781 230.550781 171.546875 225.601562 170.699219 Z M 225.601562 170.699219"/> <path style="fill:rgb(21.176%,48.235%,94.117%)" d="M 226.726562 162.617188 C 205.25 158.519531 196.808594 134.472656 211.644531 119.640625 C 225.371094 105.910156 249.269531 109.726562 257.425781 126.949219 C 266.363281 145.816406 248.351562 166.742188 226.726562 162.617188 Z M 226.726562 162.617188"/> <path style="fill:rgb(100.000%,78.039%,18.823%)" d="M 158.265625 245.433594 C 149.476562 239.925781 132.390625 251.351562 120.109375 270.949219 C 107.824219 290.550781 104.988281 310.902344 113.777344 316.410156 C 122.566406 321.917969 139.652344 310.496094 151.933594 290.898438 C 164.21875 271.296875 167.050781 250.945312 158.265625 245.433594 Z M 158.265625 245.433594"/> <path style="fill:rgb(100.000%,100.000%,100.000%)" d="M 147.84375 265.09375 C 144.183594 262.417969 146.40625 263.960938 157.757812 247.289062 C 169.507812 230.039062 173.671875 226.90625 166.972656 226.90625 C 163.902344 226.90625 162.457031 232.648438 148.15625 253.492188 C 141.355469 263.398438 143.539062 263.078125 135.128906 257.28125 C 130.890625 254.359375 129.953125 255.765625 136.476562 234.769531 C 144.433594 209.15625 161.988281 165.667969 169.925781 151.902344 C 184.980469 125.800781 206.199219 101.695312 226.246094 87.9375 C 232.898438 83.367188 239.1875 79.628906 240.21875 79.628906 C 241.246094 79.628906 244.390625 82.078125 247.203125 85.074219 C 254.839844 93.199219 264.816406 98.734375 275.09375 100.53125 L 284.261719 102.136719 L 283.988281 112.664062 C 283.601562 127.460938 272.691406 153.617188 261.296875 171.949219 C 255.980469 180.507812 244.222656 197.082031 233.550781 207.804688 C 213.488281 227.964844 179.097656 262.136719 162.433594 272.191406 C 161.515625 272.746094 149.988281 266.660156 147.84375 265.09375 Z M 241.71875 169.003906 C 252.644531 165.96875 263.835938 152.390625 265.0625 144.222656 C 268.699219 119.976562 255.019531 105.125 232.203125 105.125 C 200.753906 105.125 184.976562 139.144531 206.851562 159.792969 C 212.859375 165.460938 223.3125 169.761719 229.515625 170.261719 C 231.269531 170.34375 237.070312 170.292969 241.71875 169.003906 Z M 241.71875 169.003906"/> <path style="fill:rgb(83.137%,9.803%,9.803%)" d="M 128.523438 283.863281 C 128.523438 282.632812 134.730469 272.167969 142.320312 260.605469 C 166.1875 224.242188 164.972656 225.902344 167.949219 225.558594 C 171.1875 225.1875 172.371094 227.351562 170.804688 230.792969 C 170.214844 232.085938 164.53125 240.320312 158.179688 249.09375 C 151.824219 257.867188 145.039062 267.46875 143.097656 270.433594 C 134.269531 283.925781 128.523438 289.222656 128.523438 283.863281 Z M 128.523438 283.863281"/> <use mask="url(#mask1)" xlink:href="#surface8"/> <use mask="url(#mask2)" xlink:href="#surface11"/> </g> </svg>

<svg width="512" height="512" version="1.1" viewBox="0 0 384 384" xmlns="http://www.w3.org/2000/svg"><path d="m360.75 192c0-93.145-75.551-168.65-168.75-168.65s-168.75 75.508-168.75 168.65c0 93.145 75.551 168.65 168.75 168.65s168.75-75.508 168.75-168.65z" fill="#357af0"/><path d="m267.88 78.714c-2.3984-0.04687-5.0894 0.28955-8.105 0.98877-5.9984 1.39-17.131 5.8655-19.04 7.5308-0.14886-0.0503-0.28339-0.08203-0.38965-0.08203-1.0312 0-7.3208 3.7383-13.973 8.3086-20.047 13.758-41.266 37.864-56.32 63.965-5.7954 10.051-16.707 35.933-25.277 59.147-3.6427-1.7081-8.0116-2.7349-12.019-2.7451-0.875-4e-3 -1.7339 0.043-2.562 0.14062-6.2227 0.73828-14.489 4.7456-17.728 8.5972-3.7148 4.4141-9.7724 15.25-12.202 21.828-4.8945 13.254-6.8018 33.872-3.4424 37.228 2.7852 2.7852 6.7817 1.1172 7.7388-3.2344 0.90625-4.1289 6.3941-10.047 12.406-13.375 4.7578-2.6367 6.0981-2.9062 14.29-2.9062h0.15967c-3.9115 4.0177-7.735 8.8704-11.18 14.367-12.285 19.602-15.12 39.954-6.3311 45.461 8.7891 5.5078 25.875-5.9141 38.156-25.512 4.0419-6.4491 7.0524-12.976 8.9707-19.033 0.79864 0.29528 1.3555 0.4302 1.5293 0.3252 0.0279-0.0168 0.0584-0.0372 0.0864-0.0542-0.10204 0.14908-0.17842 0.27649-0.19628 0.35157-0.17969 0.73827 0.59374 3.2334 1.7109 5.5459 4.0547 8.3711 1.4878 21.79-5.313 27.813-3.9688 3.5156-4.2847 5.4219-1.2495 7.5469 2.5625 1.7969 3.8008 1.5034 13.406-3.1684 12.621-6.1367 24.316-15.648 33.031-26.871 5.6719-7.3008 7.2187-11.194 7.1953-18.108-0.0352-9.0039-5.0537-17.372-12.835-21.396-0.40821-0.21152-0.75204-0.37373-1.0737-0.51417 13.039-12.2 26.444-25.574 36.354-35.533 10.672-10.723 22.429-27.296 27.746-35.855 11.395-18.332 22.305-44.488 22.692-59.285l0.27392-10.528-0.12597-0.022c0.2747-1.556 0.1808-3.804-0.0352-6.9697-1.1133-16.336-5.9531-23.746-16.348-23.953zm-35.55 33.933c22.816 0 36.496 14.852 32.859 39.098-1.2266 8.168-12.418 21.746-23.344 24.781-4.6484 1.289-10.45 1.3403-12.204 1.2583-6.2031-0.5-16.656-4.8013-22.664-10.469-21.875-20.648-6.0972-54.668 25.352-54.668zm-65.231 121.78c6.486 0 2.7213 3.0576-8.1841 18.899-0.17197-0.12672-0.34103-0.25794-0.52294-0.37208-1.1575-0.72538-2.462-1.1487-3.8774-1.3066 8.5044-13.145 10.046-17.221 12.584-17.221z" opacity=".3"/><path d="m267.75 71.191c-2.3984-0.04687-5.0898 0.28906-8.1055 0.98828-6.5742 1.5234-19.352 6.7656-19.352 7.9375 0 1.5156 6.2109 9.4297 9.8242 12.523 5.7227 4.8984 14.723 9.4297 21.773 10.961 12.391 2.6914 12.941 2.3086 12.207-8.457-1.1133-16.336-5.9531-23.746-16.348-23.953zm-135.12 137.11c-0.875-4e-3 -1.7344 0.043-2.5625 0.14062-6.2227 0.73828-14.488 4.7461-17.727 8.5977-3.7148 4.4141-9.7734 15.25-12.203 21.828-4.8945 13.254-6.8008 33.871-3.4414 37.227 2.7852 2.7852 6.7812 1.1172 7.7383-3.2344 0.90625-4.1289 6.3945-10.047 12.406-13.375 4.7578-2.6367 6.0977-2.9062 14.289-2.9062h9.0391l4.7891-13.715c2.6367-7.5391 5.5508-16.344 6.4805-19.559l1.6836-5.8476-3.4531-3.168c-3.9141-3.5859-10.906-5.9727-17.039-5.9883zm62.941 34.652c-1 0.0664-2.0781 0.76563-4.2969 2.3164-5.5 3.8476-28.543 25.508-28.949 27.215-0.17969 0.73828 0.59375 3.2344 1.7109 5.5469 4.0547 8.3711 1.4883 21.789-5.3125 27.812-3.9688 3.5156-4.2852 5.4219-1.25 7.5469 2.5625 1.7969 3.8008 1.5039 13.406-3.168 12.621-6.1367 24.316-15.648 33.031-26.871 5.6719-7.3008 7.2188-11.195 7.1953-18.109-0.0352-9.0039-5.0547-17.371-12.836-21.395-1.1836-0.61328-1.918-0.94531-2.6992-0.89453z" fill="#d41717"/><path d="m225.6 170.7c-17.426-2.9766-30.145-16.766-30.145-33.223-4e-3 -13.348 9.1602-26.098 22.414-31.184 9.3828-3.6016 20.559-3.2578 29.457 0.90625 13.168 6.1602 20.461 16.988 20.461 30.375 0 15.652-12.363 30.23-27.785 32.77-8.0977 1.332-9.4531 1.2031-14.402 0.35547z" fill="#d41717"/><path d="m226.73 162.62c-21.477-4.0977-29.918-28.145-15.082-42.977 13.727-13.73 37.625-9.9141 45.781 7.3086 8.9375 18.867-9.0742 39.793-30.699 35.668z" fill="#357af0"/><path d="m158.27 245.43c-8.7891-5.5078-25.875 5.918-38.156 25.516-12.285 19.602-15.121 39.953-6.332 45.461 8.7891 5.5078 25.875-5.9141 38.156-25.512 12.285-19.602 15.117-39.953 6.332-45.465z" fill="#ffc72e"/><path d="m147.84 265.09c-3.6602-2.6758-1.4375-1.1328 9.9141-17.805 11.75-17.25 15.914-20.383 9.2148-20.383-3.0703 0-4.5156 5.7422-18.816 26.586-6.8008 9.9062-4.6172 9.5859-13.027 3.7891-4.2383-2.9219-5.1758-1.5156 1.3476-22.512 7.957-25.613 25.512-69.102 33.449-82.867 15.055-26.102 36.273-50.207 56.32-63.965 6.6524-4.5703 12.941-8.3086 13.973-8.3086 1.0273 0 4.1719 2.4492 6.9844 5.4453 7.6367 8.125 17.613 13.66 27.891 15.457l9.168 1.6055-0.27344 10.527c-0.38672 14.797-11.297 40.953-22.691 59.285-5.3164 8.5586-17.074 25.133-27.746 35.855-20.062 20.16-54.453 54.332-71.117 64.387-0.91797 0.55468-12.445-5.5312-14.59-7.0977zm93.875-96.09c10.926-3.0352 22.117-16.613 23.344-24.781 3.6367-24.246-10.043-39.098-32.859-39.098-31.449 0-47.227 34.02-25.352 54.668 6.0078 5.668 16.461 9.9688 22.664 10.469 1.7539 0.082 7.5547 0.0312 12.203-1.2578z" fill="#fff"/><path d="m128.52 283.86c0-1.2305 6.207-11.695 13.797-23.258 23.867-36.363 22.652-34.703 25.629-35.047 3.2383-0.37109 4.4219 1.793 2.8555 5.2344-0.58985 1.293-6.2734 9.5273-12.625 18.301-6.3555 8.7734-13.141 18.375-15.082 21.34-8.8281 13.492-14.574 18.789-14.574 13.43z" fill="#d41717"/><path transform="scale(.75)" d="m31.064 251c-0.036306 1.6628-0.064453 3.3285-0.064453 5 0 124.19 100.73 224.87 225 224.87s225-100.68 225-224.87c0-1.6715-0.02815-3.3372-0.06445-5-2.6613 121.88-102.34 219.87-224.94 219.87-122.59 0-222.27-97.986-224.94-219.87z" opacity=".3" stroke-width="1.3333"/><path transform="scale(.75)" d="m256 31.131c-124.27 0-225 100.68-225 224.87 0 1.6715 0.028147 3.3372 0.064453 5 2.6613-121.88 102.34-219.87 224.94-219.87 122.59 0 222.27 97.986 224.94 219.87 0.0363-1.6628 0.06445-3.3285 0.06445-5 0-124.19-100.73-224.87-225-224.87z" fill="#fbfcff" opacity=".3" stroke-width="1.3333"/><path transform="scale(.75)" d="m308.9 148.43c-9.5952 0.08508-19.27 3.6606-26.705 11.098-8.2285 8.2263-11.072 18.576-9.543 28.256 1.0358-6.4746 4.114-12.828 9.543-18.256 18.303-18.307 50.166-13.218 61.041 9.7461 1.3633 2.878 2.2358 5.7898 2.7051 8.6856 0.99391-6.0296 0.25283-12.441-2.7051-18.686-6.4568-13.635-20.312-20.968-34.336-20.844z" opacity=".3" stroke-width="1.3333"/></svg>
